src/assets/media/home/dots.ideas.svg

<svg width="254" height="13" viewBox="0 0 254 13" fill="none" xmlns="http://www.w3.org/2000/svg">
<path d="M2.68721 7.51964C1.31735 7.69239 0.346896 8.94293 0.519644 10.3128C0.692393 11.6827 1.94293 12.6531 3.31279 12.4804L2.68721 7.51964ZM250.751 12.4875C252.125 12.6252 253.35 11.6231 253.488 10.2492C253.625 8.87539 252.623 7.65008 251.249 7.51242L250.751 12.4875ZM3.31279 12.4804C4.5945 12.3187 6.13591 12.122 7.94693 11.8972L7.33111 6.9353C5.51368 7.16086 3.96007 7.35913 2.68721 7.51964L3.31279 12.4804ZM17.197 10.8051C19.977 10.4948 23.0667 10.1664 26.4616 9.83126L25.9703 4.85545C22.5527 5.19288 19.4419 5.52351 16.6424 5.83597L17.197 10.8051ZM35.757 8.97048C38.6846 8.71691 41.7815 8.46487 45.0455 8.21912L44.6702 3.23323C41.3869 3.48042 38.2714 3.73397 35.3255 3.98913L35.757 8.97048ZM54.3589 7.56818C57.3482 7.37507 60.4539 7.1894 63.6748 7.01397L63.4028 2.02137C60.165 2.19773 57.0425 2.3844 54.0365 2.57858L54.3589 7.56818ZM72.9904 6.55195C76.0095 6.4167 79.1168 6.29138 82.3116 6.17788L82.134 1.18103C78.9238 1.29508 75.801 1.42103 72.7666 1.55696L72.9904 6.55195ZM91.6476 5.88819C94.688 5.80737 97.7994 5.7377 100.981 5.6806L100.892 0.681402C97.6952 0.738762 94.5694 0.808751 91.5147 0.88996L91.6476 5.88819ZM110.308 5.55244C113.364 5.52317 116.479 5.50572 119.653 5.50119L119.646 0.501194C116.458 0.505748 113.329 0.523274 110.26 0.552669L110.308 5.55244ZM128.982 5.52498C130.53 5.53504 132.092 5.5482 133.666 5.56457L133.718 0.564844C132.137 0.548398 130.569 0.535183 129.014 0.525082L128.982 5.52498ZM133.666 5.56457C135.326 5.58184 136.964 5.60124 138.58 5.62268L138.647 0.623115C137.026 0.601614 135.383 0.58216 133.718 0.564844L133.666 5.56457ZM148.362 5.78159C151.717 5.84639 154.972 5.92013 158.129 6.00185L158.258 1.00353C155.09 0.921518 151.825 0.847531 148.458 0.782517L148.362 5.78159ZM167.919 6.29009C171.299 6.40197 174.555 6.52299 177.691 6.6517L177.896 1.6559C174.746 1.52664 171.477 1.40514 168.084 1.29283L167.919 6.29009ZM187.456 7.09448C190.864 7.26421 194.113 7.44252 197.21 7.62704L197.508 2.63589C194.394 2.4504 191.129 2.2712 187.705 2.10067L187.456 7.09448ZM206.951 8.25936C210.414 8.50333 213.655 8.75293 216.689 9.00358L217.101 4.02055C214.047 3.76827 210.786 3.51713 207.303 3.27172L206.951 8.25936ZM226.411 9.86993C230.001 10.2137 233.226 10.5494 236.131 10.8647L236.67 5.8939C233.749 5.57677 230.502 5.23886 226.887 4.8927L226.411 9.86993ZM245.858 11.9574C247.663 12.1615 249.289 12.341 250.751 12.4875L251.249 7.51242C249.82 7.36923 248.221 7.1927 246.42 6.98905L245.858 11.9574Z" fill="#067DE1"/>
</svg>

<svg xmlns="http://www.w3.org/2000/svg" fill="none" width="254" height="13" viewBox="0 0 254 13"><path d="M2.687 7.52a2.5 2.5 0 0 0 .626 4.96l-.626-4.96Zm248.064 4.968a2.5 2.5 0 1 0 .498-4.976l-.498 4.976ZM3.313 12.48c1.281-.161 2.823-.358 4.634-.583L7.33 6.935c-1.817.226-3.37.424-4.644.585l.626 4.96Zm13.884-1.675c2.78-.31 5.87-.639 9.265-.974l-.492-4.976a756.4 756.4 0 0 0-9.328.981l.555 4.97Zm18.56-1.835c2.928-.253 6.025-.505 9.288-.75l-.375-4.987c-3.283.247-6.399.501-9.345.756l.432 4.981Zm18.602-1.402a924.17 924.17 0 0 1 9.316-.554l-.272-4.993c-3.238.177-6.36.363-9.367.558l.323 4.99ZM72.99 6.552c3.02-.135 6.127-.26 9.322-.374l-.178-4.997c-3.21.114-6.333.24-9.367.376l.223 4.995Zm18.658-.664c3.04-.08 6.151-.15 9.333-.207l-.089-5C97.695.74 94.569.81 91.515.89l.133 4.998Zm18.66-.336c3.056-.029 6.171-.046 9.345-.05l-.007-5c-3.188.004-6.317.021-9.386.05l.048 5Zm18.674-.027c1.548.01 3.11.023 4.684.04l.052-5c-1.581-.017-3.149-.03-4.704-.04l-.032 5Zm4.684.04c1.66.017 3.298.036 4.914.058l.067-5c-1.621-.021-3.264-.04-4.929-.058l-.052 5Zm14.696.217c3.355.064 6.61.138 9.767.22l.129-4.998c-3.168-.082-6.433-.156-9.8-.221l-.096 4.999Zm19.557.508c3.38.112 6.636.233 9.772.362l.205-4.996c-3.15-.13-6.419-.25-9.812-.363l-.165 4.997Zm19.537.804c3.408.17 6.657.349 9.754.533l.298-4.991a976.918 976.918 0 0 0-9.803-.535l-.249 4.993Zm19.495 1.165c3.463.244 6.704.494 9.738.745l.412-4.983a813.146 813.146 0 0 0-9.798-.75l-.352 4.988Zm19.46 1.61c3.59.345 6.815.68 9.72.996l.539-4.971a769.496 769.496 0 0 0-9.783-1.001l-.476 4.977Zm19.447 2.088c1.805.204 3.431.384 4.893.53l.498-4.975c-1.429-.143-3.028-.32-4.829-.523l-.562 4.968Z" fill="#067DE1"/></svg>
